X:1
T:Old Time Power
T:Old Time Power
T:Paul Rader
T:Paul Rader, 1917
T:Public Domain Courtesy of the Cyber Hymnal™
C:Paul Rader
Z:Public Domain
Z:Courtesy of the Cyber Hymnal™
%%score ( 1 2 ) ( 3 4 )
L:1/8
Q:1/4=110
M:4/4
K:Bb
V:1 treble 
V:2 treble 
V:3 bass 
V:4 bass 
V:1
 [DF]2 [EG]2 [DF]2 [Fd]2 | [Ec]3 [EB] [FA]2 [EG]2 | [DF]2 [EG]2 [DF]2 [FB]2 | [Fc]2 [=Ed]2 c4 | %4
w: 1.~We are ga- thered|for Thy bless- ing,|We will wait up-|on our God;|
w: 2.~We will glo- ry|in Thy pow- er,|We will sing of|wond- rous grace;|
w: 3.~Bring us low in|prayer be- fore Thee,|And with faith our|souls in- spire,|
 [Dd]2 [Ec]2 [DB]3 F | [EG]2 [EB]2 [EG]2 [DF]2 | [FB]2 [DB]2 [Ec]2 [Ge]2 | [Fd]2 c2 [DB]4 || %8
w: We will trust in|Him who loved us,|And who bought us|with His blood.|
w: In our midst, as|Thou has prom- ised,|Come, O come, and|take Thy place.|
w: Till we claim, by|faith, the prom- ise|Of the Ho- ly|Ghost and fire.|
"^Refrain" [DF]4 [B,D]2 [DF]2 | [Fd]3 [=E^c] [Fd]4 | [Ec]4 [EB]2 [EG]2 | [DF]2 [B,D]2 [A,C]4 | %12
w: ||||
w: Spir- it, now|melt and move|All of our|hearts with love,|
w: ||||
 [DF]4 [EG]2 [DF]2 | [FB]2 c2 [DB]2 [Gc]2 | [Fd]4 c4 | [DB]8 |] %16
w: ||||
w: Breathe on us|from a- bove With|old time|power.|
w: ||||
V:2
 x8 | x8 | x8 | x4 (F2 _E2) | x8 | x8 | x8 | x2 (FE) x4 || x8 | x8 | x8 | x8 | x8 | x2 (FE) x4 | %14
 x4 (F2 E2) | x8 |] %16
V:3
 [B,,B,]2 [B,,B,]2 [B,,B,]2 [B,,B,]2 | [E,G,]3 [E,G,] [E,A,]2 [E,B,]2 | %2
 [B,,B,]2 [B,,B,]2 [B,,B,]2 [D,B,]2 | [C,A,]2 [C,B,]2 [F,A,]4 | [B,,F,]2 (G,A,) [B,,B,]3 [D,B,] | %5
 [E,B,]2 [E,G,]2 [B,,B,]2 [B,,B,]2 | [D,B,]2 [B,,B,]2 [E,G,]2 [C,C]2 | [F,B,]2 [F,A,]2 [B,,B,]4 || %8
 [B,,B,]4 [B,,F,]2 [B,,B,]2 | [B,,B,]3 [B,,G,] (F,2 _A,2) | [E,G,]4 [E,G,]2 [E,B,]2 | %11
 [B,,B,]2 [D,F,]2 F,4 | [B,,B,]4 [B,,B,]2 [B,,B,]2 | [D,B,]2 [F,A,]2 [G,B,]2 [E,B,]2 | %14
 [F,B,]4 [F,A,]4 | [B,,B,]8 |] %16
V:4
 x8 | x8 | x8 | x8 | x2 B,,2 x4 | x8 | x8 | x8 || x8 | x4 B,,4 | x8 | x4 F,4 | x8 | x8 | x8 | x8 |] %16

